X:1
T:Es wollt uns Gott
T:Benedictus Ducis
T:Source : DDT 34---Leipzig---Breitkopf & Härtel---J.Wolf---1908. First publication : Neue Deudsche Geistliche Gesenge---Wittemberg---G.Rhau---1544. Editor : André Vierendeels (18/07/17)
T:Notes : Original Clefs : C1, C3, C4, F4 Original note values have been halved Editorial accidentals above the staff 
T:Es wollt uns Gott
T:©
T:©
T:©
C:Benedictus Ducis
Z:©
%%score [ 1 [ 2 3 ] 4 ]
L:1/8
Q:1/4=120
M:2/2
K:C
V:1 treble nm="Soprano" snm="S"
V:2 treble-8 nm="Tenor 1" snm="T 1"
V:3 treble-8 nm="Tenor 2" snm="T 2"
V:4 bass nm="Bass" snm="B"
V:1
 z8 | z8 | z8 | B4 c4 | B4 A4 | B4 d4 | e8 | d3 c B4- | B4 z2 d2 | c4 B4 | c4 A4 | G4 E2 F2- | %12
w: |||Es wollt|uns Gott|ge- nä-|dig|sein _ _|_ und|sei- nen|Se- gen|ge- * *|
w: |||Sein Ant-|litz uns|mit hel-|len|Schein _ _|_ er-|leucht zum|e- wig-|* en Le-|
 FE E4 D2 | E8- | E8 :| G8 | F2 E4 D2 | E4 C4 | D4 E4- | E4 z2 B2 | c2 A2 G4 | A2 c2 B4 | %22
w: |ben.|_|Dasz|wir er- ken-|nen sei-|ne Werk|_ und|was ihm liebt|auf Er- den|
w: |ben,|_||||||||
 z4 z2 e2 | d2 B2 d2 cB | A2 A2 G4 | F4 E4- | E8- | E8 | z2 G2 A2 G2 | c2 B3 A A2- | A2 G2 A2 c2- | %31
w: und|Je- sus Chri- * *|* stus Heil|und Stärk,|_||be- kannt den|Hei- den _ wer-|* * den und|
w: |||||||||
 c2 B2 A4 | G2 G3 E F2 | G8 | E8- | E8- | E8- | E8- | E8 |] %39
w: _ _ sie|zu Got _ be-|keh-|ren.|_||||
w: ||||||||
V:2
 z8 | e3 f g2 a2- | a2 g2 a4 | g4 z2 c2 | d4 f4 | g4 f4 | e2 g2 a2 g2- | g2 f2 g4- | g4 z2 g2- | %9
w: |Es _ _ wollt|_ _ uns|Gott, es|wollt uns|Gott ge-|nä- * * *|* dig sein|_ und|
w: |Sein _ _ An-|* * litz|us, sein|An- litz|uns _|_ mit hel- *|* len Schein|_ er-|
 ge f2 g4 | e4 f4 | d4 c2 A2- | AG G4 F2 | G2 A2 G4 | c8 :| e4 c3 B | A2 G2 A4 | B4 A4- | %18
w: _ _ sei- nen|Se- *|* gen ge-|||ben.|Dasz wir _|_ er- ken-|nen sei-|
w: * * leucht zum|e- *|wi- gen Le-|||ben.||||
 A2 B2 c2 A2 | G2 g2 g2 g2 | e2 f2 e4 | c4 z2 d2 | e3 f ga g2 | f2 g2 f4 | f4 e4 | d4 z2 G2 | %26
w: * * * ne|Werk und was ihm|liebt auf Er-|den und|Je- * * * sus|Chri- * stus|Heil uns|Stärk, be-|
w: ||||||||
 A2 G2 c3 B | A2 G2 c3 d | B4 A2 e2- | ef g2 f4 | e4 z2 e2 | f2 g2 c2 d2 | e4 d4 | z2 e4 d2 | %34
w: kannt den Hei- *|* den wer- *|* den, [den|Hei- * den wer-|den,] und|sie zu Gott be-|keh- ren,|und sie|
w: ||||||||
 c6 B2 |"^#" c2 A4 G2 | A6 B2 | c8 | B8 |] %39
w: zu Gott|be- keh- *|||ren.|
w: |||||
V:3
 B3 A B2 c2- | c2 BA B2 AB | cd e4 d2 | e8 | z2 B2 c2 d2 | G4 A4 | c8 | A4 G4 | z2 d2 c2 B2 | %9
w: Es _ _ wollt|_ _ _ _ uns _|_ _ _ _|Gott,|es wollt uns|Gott ge-|nä-|dig sein|und sei- nen|
w: Sein _ _ An-|* * * * litz _|_ _ _ _|uns,|sein An- litz|uns mit|hel-|len Schein|er- leucht zum|
 c4 d2 ed | cB c2 d2 c2- | c2 B2 AG d2- |"^b" dc c4 B2 | c8 | A4 G4 :| c4 e4 | d2 c3 B A2- | %17
w: Se- * * *||||gen|ge- ben.|Dasz wir|er- ken- * *|
w: e- * * *|||* * wi- *|gen|Le- ben.|||
 A2 G2 F2 E2 | F4 G2 c2 | c2 c2 e3 d | c2 d2 B4 | A4 z4 | z2 G2 c3 B | A2 G2 A3 B | c2 d2 B2 c2- | %25
w: * nen sei- *|ne Werk und|was ihm liebt _|_ auf Er-|den|und Je- *|* sus Chri- *|* stus Heil- *|
w: ||||||||
 cA B2 c4 | z2 G2 A2 G2 | c2 B3 A A2- | A2 G2 c3 B | A2 G2 c2 d2 | B4 A4 | z2 G2 A2 A2 | B2 c2 A4 | %33
w: * * und Stärk,|be- kannt den|Hei- * * den|_ _ wer- *||* den,|und sie zu|Gott be- keh-|
w: ||||||||
 G2 c4 B2 | A2 G2 A2 G2 | C2 c2 B2 B2 | c6 B2 | A4 G4- | G8 |] %39
w: ren, zu _|Gott be- keh- *|ren, zu Gott be-|keh- *|* ren.|_|
w: ||||||
V:4
 E,3 F, G,2 A,2- | A,2 G,F, E,2 F,2- | F,2 E,2 F,4 | E,4 A,4 | G,4 F,4 | E,4 D,4 | C,8 | D,4 E,4 | %8
w: Es _ _ wollt-|* * * * uns|_ _ _|Gott, es|wollt uns|Gott ge|nä-|dig sein|
w: Sein _ _ An-|* * * * litz|_ _ _|uns, sein|An- litz|uns mit|hel-|len Schein|
 z2 G,2 A,2 G,2 | A,4 G,4 | A,4 F,4 | G,4 C,2 D,2 | E,2 C,2 D,4 | C,8- | C,8 :| C,8 | D,2 E,2 F,4 | %17
w: und dei- nen|Se- gen|ge- *|||ben.|_|Dasz|wir er- ken-|
w: er- leucht zum|e- wig|Le- *|||ben.|_|||
 E,4 A,,4 | D,4 C,4- | C,4 z2 G,2 | A,2 D,2 E,4 | F,4 G,4 | C,4 z2 C,2 | D,2 E,2 D,2 F,2- | %24
w: nen sei-|ne Werk|_ und|was ihm liebt|auf Er-|den und|Je- sus Chri- *|
w: |||||||
 F,2 D,2 E,2 C,2 | D,4 C,4- | C,4 z2 C,2- | C,D, E,2 A,,4 | E,4 z2 E,2 | A,,2 E,2 F,2 D,2 | %30
w: * stus Heil _|und Stärk,|_ Heil|_ _ _ uns|Stärk, be-|kannt den Hei- den|
w: ||||||
 E,4 A,,4 | z2 E,2 F,4 | E,2 C,2 D,4 | E,2 C,D, E,F, G,2 | C,4 z2 E,2 | A,,2 A,,2 E,3 D, | %36
w: wer- den|und sie|zu Gott be-|keh- * * * * *|ren, und|sie zu Gott _|
w: ||||||
"^#" C,B,, A,,4 G,,2 | A,,4 C,3 D, | E,8 |] %39
w: _ _ _ be-|keh- * *|ren.|
w: |||

